!!!!SEGMENT: pl-sa--197-a-vi-1--003_anonim--requiem-es-dies-irae.krn
!!!cenid: 17xx:1674
!!!COM: Anonim
!!!COM-rismID: pe30004985
!!!CDT:
!!!CNT:
!!!OPR: Requiem Es
!!!OTL: Dies irae
!!!OMV: 003
!!!PDT:
!!!AGN: Sacred; Requiem
!!!SMS-siglum: PL-SA
!!!SMS-shelfmark: 197/A VI 1
!!!SMS-shelfwork: 001-003 M
!!!SMS-variant:
!!!SMS-altvar:
!!!NIFC-rismSourceID: 1001070179
!!!NIFC-rismChildID: 1001070179
!!!NIFC-islandoraID: none
!!!URL-pdf-islandora:
!!!URL-scan: https://bc.bdsandomierz.pl/dlibra/publication/1533/edition/1501/content @EN{Scan in the Sandomierz Diocese Digital Library} @PL{Skany w portalu Cyfrowa Biblioteka Diecezjalna w Sandomierzu}
!!!ONB-nifc: UWAGA: części Requiem: 1. Requiem, 2. Kirie, 3. Dies irae, 4. Domine Jesu Christe, 5. Sanctus, 6. Osanna, 7. Benedictus, 8. Agnus Dei, 9. Lux aeterna
!!!AIN: 1 alto 1 bass 1 soprn
!!!key: E-
**kern	**text	**kern	**text	**kern	**text
*part3	*part3	*part2	*part2	*part1	*part1
*staff3	*staff3	*staff2	*staff2	*staff1	*staff1
*I"Baſſo	*	*I"Alto	*	*I"Canto:.	*
*I'B	*	*I'A	*	*I'S	*
*Ibass	*	*Ialto	*	*Isoprn	*
*ICvox	*	*ICvox	*	*ICvox	*
*clefF4	*	*clefC3	*	*clefC1	*
*k[b-e-a-]	*	*k[b-e-a-]	*	*k[b-e-a-]	*
*E-:	*	*E-:	*	*E-:	*
*M4/4	*	*M4/4	*	*M4/4	*
*met(c)	*	*met(c)	*	*met(c)	*
=1	=1	=1	=1	=1	=1
*all\right	*	*all\right	*	*all\right	*
*2\right	*	*2\right	*	*2\right	*
!	!	!	!	!LO:TX:a:B:t=Adagio	!
!	!	!	!	!LO:TX:a:t=Tutti	!
!	!	!	!	!LO:TX:a:B:t=Adagio	!
8E-\	Di-	8g\	Di-	8b-\	Di-
8F\	-es	8f\	-es	8a-\	-es
8G\	i-	8e-\	i-	8g\	i-
8E-\	-re	8g\	-re	8b-\	-rae
8A-\	di-	8f\	di-	8a-\	Di-
8F\	-es	(16e-\LL	-es	(16g\LL	-es
.	.	16f\JJ)	.	16a-\JJ)	.
8B-\	il-	8d\	il-	8f/	il-
8BB-/	-la	8d\	-la	8f/	-la
=2	=2	=2	=2	=2	=2
1r	.	1r	.	1r	.
=3	=3	=3	=3	=3	=3
8E-\	ſol-	8e-\	ſol-	8g/	ſol-
8D\	-vet	8f\	-vet	8b-\	-vet
8C/	ſe-	8e-\	ſe-	8an\	ſae-
8BB-/	-clum	8f\	-clum	(16b-\LL	-clum
.	.	.	.	16cc\JJ)	.
8F\	in	8.f\	in	8dd\	in
8FF/	fa-	.	.	(16cc\LL	fa-
.	.	16f\	fa-	16b-\JJ)	.
8BB-/	-vil-	8f\	-vil-	8b-\	-vi-
8BB-/	-la	8f\	-la	8b-\	-la
=4	=4	=4	=4	=4	=4
1r	.	1r	.	1r	.
=5	=5	=5	=5	=5	=5
8D/	in	8f\	tes-	8b-\	tes-
8BB-/	fa-	8f\	-te	8dd\	-te
8E-\	-vil-	8g\	Da-	8ee-\	da-
8BB-/	-la	8f\	-vid	8dd\	-vit
2r	.	2r	.	2r	.
=6	=6	=6	=6	=6	=6
8E-\	tes-	8g\	tes-	8ee-\	tes-
8D/	-te	8f\	-te	8bn\	-te
!	!	!	!	!LO:LB:g=original	!
8C/	da-	8g\	da-	8cc\	Da-
8F\	-vid	8a-\	-vid	8dd\	-vit
!LO:LB:g=original	!	!	!	!	!
8G\	Cum	8.g\	Cum	8ee-\	Cum
8GG/	ſi-	.	.	(16dd\LL	ſi-
.	.	16g\	ſi-	16cc\JJ)	.
8C/	-bil-	8g\	-bil-	8cc\	-bil-
8C/	-la	8g\	-la	8cc\	-la
!	!	!LO:LB:g=original	!	!	!
=7	=7	=7	=7	=7	=7
8B-\	tes-	8f\	Cum	8dd\	Cum
8B-\	-te	8f\	ſi-	8dd\	ſi-
8E-\	da-	8g\	-bil-	8ee-\	-bil-
8B-\	-vid	8f\	-la	8dd\	-la
2r	.	2r	.	2r	.
=8	=8	=8	=8	=8	=8
8E-\	tes-	8g\	tes-	8ee-\	tes-
8F\	-te	8f\	-te	8dd\	-te
8G\	da-	8e-\	da-	8ee-\	da-
8A-\	-vid	(16a-\LL	-vid	(16ff\LL	-vit
.	.	16g\JJ)	.	16ee-\JJ)	.
8B-\	Cum	8.f\	Cum	8.dd\	cum
8BB-/	ſi-	.	.	.	.
.	.	16f\	ſi-	16dd\	ſi-
8E-\	-bil-	8g\	-bil-	8ee-\	-bil-
(16G\LL	-la	8g\	-la	8ee-\	-la
16A-\JJ)	.	.	.	.	.
=9	=9	=9	=9	=9	=9
*	*	*	*	*	*ij
8B-\	Cum	8f\	Cum	8dd\	Cum
8BB-/	ſi-	8f\	ſi-	8dd\	ſi-
8E-\	-bil-	8g\	-bil-	8ee-\	-bil-
8E-\	-la	8g\	-la	8ee-\	-la
*	*	*	*	*	*Xij
2r	.	2r	.	2r	.
!	!	!	!	!LO:LB:g=original	!
=10||	=10||	=10||	=10||	=10||	=10||
*k[]	*	*k[]	*	*k[]	*
*	*	*	*	*	*
*M3/4	*	*M3/4	*	*M3/4	*
!	!	!	!	!LO:TX:b:t=Alto Solo	!
!LO:TX:a:t=Quantus Tremor\ntacet	!	!LO:TX:t=P:problem=2 kasowniki przy kluczu	!	!LO:TX:a:t=Tacet\nQuantus	!
2.ryy	.	2.r	.	2.ryy	.
=11	=11	=11	=11	=11	=11
2.ryy	.	2.r	.	2.ryy	.
=12	=12	=12	=12	=12	=12
2.ryy	.	2.r	.	2.ryy	.
=13	=13	=13	=13	=13	=13
2.ryy	.	2.r	.	2.ryy	.
=14	=14	=14	=14	=14	=14
2.ryy	.	2.r	.	2.ryy	.
=15	=15	=15	=15	=15	=15
2.ryy	.	2.r	.	2.ryy	.
=16	=16	=16	=16	=16	=16
2.ryy	.	2.r	.	2.ryy	.
=17	=17	=17	=17	=17	=17
2.ryy	.	2.r	.	2.ryy	.
=18	=18	=18	=18	=18	=18
2.ryy	.	2.r	.	2.ryy	.
=19	=19	=19	=19	=19	=19
2.ryy	.	2.r	.	2.ryy	.
=20	=20	=20	=20	=20	=20
2.ryy	.	8d\L	Qan-	2.ryy	.
.	.	8d~\	.	.	.
.	.	8d~\	.	.	.
.	.	8d~\J	.	.	.
.	.	8d~\L	-tus	.	.
.	.	8d~\J	.	.	.
=21	=21	=21	=21	=21	=21
2.ryy	.	8c~/L	tre-	2.ryy	.
.	.	8c~/	.	.	.
.	.	8c~/	.	.	.
.	.	8c~/J	.	.	.
.	.	4c/	-mor	.	.
=22	=22	=22	=22	=22	=22
2.ryy	.	2.r	.	2.ryy	.
=23	=23	=23	=23	=23	=23
2.ryy	.	2.r	.	2.ryy	.
!	!	!LO:LB:g=original	!	!	!
=24	=24	=24	=24	=24	=24
*k[b-e-a-]	*	*k[b-e-a-]	*	*k[b-e-a-]	*
2.ryy	.	8d\L	Qan-	2.ryy	.
.	.	8d~\	.	.	.
.	.	8d~\	.	.	.
.	.	8d~\J	.	.	.
.	.	8d~\L	-tus	.	.
.	.	8d~\J	.	.	.
=25	=25	=25	=25	=25	=25
2.ryy	.	8c~/L	tre-	2.ryy	.
.	.	8c~/	.	.	.
.	.	8c~/	.	.	.
.	.	8c~/J	.	.	.
.	.	8c~/L	-mor	.	.
.	.	8c~/J	.	.	.
=26	=26	=26	=26	=26	=26
2.ryy	.	8e-\L	est	2.ryy	.
.	.	8d\	.	.	.
.	.	8e-\	.	.	.
.	.	8f\	.	.	.
.	.	8e-\	fu-	.	.
.	.	8f\J	.	.	.
=27	=27	=27	=27	=27	=27
2.ryy	.	8d\L	-tu-	2.ryy	.
.	.	8c\	.	.	.
.	.	8d\	.	.	.
.	.	8e-\J	.	.	.
.	.	4d\	-rus	.	.
=28	=28	=28	=28	=28	=28
2.ryy	.	4r	.	2.ryy	.
.	.	4c/	qan-	.	.
.	.	4f\	-do	.	.
=29	=29	=29	=29	=29	=29
2.ryy	.	4.d\	ju-	2.ryy	.
.	.	8en\	-dex	.	.
.	.	4f\	.	.	.
=30	=30	=30	=30	=30	=30
2.ryy	.	8g\L	est	2.ryy	.
.	.	8f\J	.	.	.
.	.	4f\	ven-	.	.
.	.	4en\	-tu-	.	.
=31	=31	=31	=31	=31	=31
2.ryy	.	2f\	-rus	2.ryy	.
.	.	4r	.	.	.
=32	=32	=32	=32	=32	=32
2.ryy	.	2.r	.	2.ryy	.
=33	=33	=33	=33	=33	=33
2.ryy	.	2.r	.	2.ryy	.
=34	=34	=34	=34	=34	=34
2.ryy	.	2.r	.	2.ryy	.
=35	=35	=35	=35	=35	=35
2.ryy	.	4r	.	2.ryy	.
.	.	4c/	Cun-	.	.
.	.	(8d\L	-cta	.	.
.	.	8B-\J)	.	.	.
!	!	!LO:LB:g=original	!	!	!
=36	=36	=36	=36	=36	=36
2.ryy	.	8c\	stri-	2.ryy	.
.	.	(16B-/LL	-cte	.	.
.	.	16c/JJ)	.	.	.
.	.	4A-/	.	.	.
.	.	4r	.	.	.
=37	=37	=37	=37	=37	=37
2.ryy	.	4r	.	2.ryy	.
.	.	4f\	Cun-	.	.
.	.	(8g\L	-cta	.	.
.	.	8e-\J)	.	.	.
=38	=38	=38	=38	=38	=38
2.ryy	.	8f\L	stri-	2.ryy	.
.	.	16e-\L	.	.	.
.	.	16f\JJ	.	.	.
.	.	4d\	-cte	.	.
.	.	4r	.	.	.
=39	=39	=39	=39	=39	=39
2.ryy	.	4r	.	2.ryy	.
.	.	4f\	Cun-	.	.
.	.	4e-\	-cta	.	.
=40	=40	=40	=40	=40	=40
2.ryy	.	4.d\	stri-	2.ryy	.
.	.	8e-\	-cte	.	.
.	.	4f\	.	.	.
=41	=41	=41	=41	=41	=41
2.ryy	.	8e-\L	di-	2.ryy	.
.	.	8d\J	-scur-	.	.
.	.	16c\LL	.	.	.
.	.	16d\	.	.	.
.	.	16e-\	.	.	.
.	.	16f\JJ	.	.	.
.	.	8d/L	-su-	.	.
.	.	16c/L	.	.	.
.	.	16B-/JJ	.	.	.
=42	=42	=42	=42	=42	=42
2.ryy	.	2.B-/	-rus	2.ryy	.
=43	=43	=43	=43	=43	=43
2.ryy	.	2.r	.	2.ryy	.
=44	=44	=44	=44	=44	=44
2.ryy	.	2.r	.	2.ryy	.
=45	=45	=45	=45	=45	=45
2.ryy	.	2.r	.	2.ryy	.
=46	=46	=46	=46	=46	=46
2.ryy	.	2.r	.	2.ryy	.
=47	=47	=47	=47	=47	=47
2.ryy	.	2.r	.	2.ryy	.
=48	=48	=48	=48	=48	=48
2.ryy	.	2.r	.	2.ryy	.
=49	=49	=49	=49	=49	=49
2.ryy	.	2.r	.	2.ryy	.
=50	=50	=50	=50	=50	=50
2.ryy	.	2.r	.	2.ryy	.
=51||	=51||	=51||	=51||	=51||	=51||
*M4/4	*	*M4/4	*	*M4/4	*
*met(c)	*	*met(c)	*	*met(c)	*
!	!	!	!	!LO:TX:b:t=Solo tacet	!
!	!	!LO:TX:a:t=Tuba Baso\nTacet\ncanto mors Tacet	!	!LO:TX:a:t=Tuba mirum	!
8E-\	Tu-	1ryy	.	1ryy	.
8B-\	-ba	.	.	.	.
8G\	mi-	.	.	.	.
8F\	-rum	.	.	.	.
(16E-\LL	spar-	.	.	.	.
16F\JJ)	.	.	.	.	.
(16G\LL	-get	.	.	.	.
16A-\JJ)	.	.	.	.	.
8B-\	ſo-	.	.	.	.
8BB-/	-num	.	.	.	.
=52	=52	=52	=52	=52	=52
1r	.	1ryy	.	1ryy	.
=53	=53	=53	=53	=53	=53
1r	.	1ryy	.	1ryy	.
!LO:LB:g=original	!	!	!	!	!
=54	=54	=54	=54	=54	=54
8E-\	Tu-	1ryy	.	1ryy	.
8B-\	-ba	.	.	.	.
8G\	mi-	.	.	.	.
8F\	-rum	.	.	.	.
16E-\LL	spar-	.	.	.	.
16F\JJ	.	.	.	.	.
16G\LL	-get	.	.	.	.
16A-\JJ	.	.	.	.	.
8B-\	ſo-	.	.	.	.
8BB-/	-num	.	.	.	.
=55	=55	=55	=55	=55	=55
8c\	per	1ryy	.	1ryy	.
8B-\	se-	.	.	.	.
8An\	-pul-	.	.	.	.
16B-\LL	-chra	.	.	.	.
16E-\JJ	.	.	.	.	.
8F\	re-	.	.	.	.
8FF/	-gi-	.	.	.	.
8BB-/	-o-	.	.	.	.
8BB-/	-num	.	.	.	.
=56	=56	=56	=56	=56	=56
1r	.	1ryy	.	1ryy	.
=57	=57	=57	=57	=57	=57
4r	.	1ryy	.	1ryy	.
8F\	Co-	.	.	.	.
8B-\	-get	.	.	.	.
16G\LL	O-	.	.	.	.
16A-\	.	.	.	.	.
16B-\	.	.	.	.	.
16A-\JJ	.	.	.	.	.
16G\LL	.	.	.	.	.
16A-\	.	.	.	.	.
16G\	.	.	.	.	.
16F\JJ	.	.	.	.	.
=58	=58	=58	=58	=58	=58
8E-\	.	1ryy	.	1ryy	.
8E-\	-mnes	.	.	.	.
16A-\LL	Co-	.	.	.	.
16B-\JJ	.	.	.	.	.
16c\LL	-get	.	.	.	.
16B-\JJ	.	.	.	.	.
16A-\LL	O-	.	.	.	.
16B-\	.	.	.	.	.
16c\	.	.	.	.	.
16B-\JJ	.	.	.	.	.
16A-\LL	.	.	.	.	.
16B-\	.	.	.	.	.
16A-\	.	.	.	.	.
16G\JJ	.	.	.	.	.
=59	=59	=59	=59	=59	=59
8F\	.	1ryy	.	1ryy	.
8F\	-mnes	.	.	.	.
4r	.	.	.	.	.
2r	.	.	.	.	.
=60	=60	=60	=60	=60	=60
1r	.	1ryy	.	1ryy	.
=61	=61	=61	=61	=61	=61
4r	.	1ryy	.	1ryy	.
(16B-\LL	Co-	.	.	.	.
16A-\JJ)	.	.	.	.	.
(16G\LL	-get	.	.	.	.
16F\JJ)	.	.	.	.	.
8G\	om-	.	.	.	.
8F\	-nes	.	.	.	.
16e-\LL	Co-	.	.	.	.
16d\	.	.	.	.	.
16c\	-get	.	.	.	.
16B-\JJ	.	.	.	.	.
=62	=62	=62	=62	=62	=62
16c\LL	O-	1ryy	.	1ryy	.
16B-\	.	.	.	.	.
16c\	.	.	.	.	.
16B-\JJ	.	.	.	.	.
16A-\LL	.	.	.	.	.
16G\	.	.	.	.	.
16A-\	.	.	.	.	.
16G\JJ	.	.	.	.	.
8F\	.	.	.	.	.
8F\	-mnes	.	.	.	.
8B-\	Co-	.	.	.	.
8F\	-get	.	.	.	.
=63	=63	=63	=63	=63	=63
8G\	O-	1ryy	.	1ryy	.
8F\	-mnes	.	.	.	.
8E-\	an-	.	.	.	.
8A-\	te	.	.	.	.
(8B-\L	tro-	.	.	.	.
8BB-/J)	.	.	.	.	.
4E-\	-num	.	.	.	.
=64	=64	=64	=64	=64	=64
8E-\	tu-	1ryy	.	1ryy	.
8B-\	-ba	.	.	.	.
8G\	mi-	.	.	.	.
8F\	-rum	.	.	.	.
16E-\LL	spar-	.	.	.	.
16F\JJ	.	.	.	.	.
16G\LL	-get	.	.	.	.
16A-\JJ	.	.	.	.	.
8B-\	ſo-	.	.	.	.
8BB-/	-num	.	.	.	.
!LO:LB:g=original	!	!	!	!	!
=65	=65	=65	=65	=65	=65
8E-\	ſpar-	1ryy	.	1ryy	.
(16c\LL	-get	.	.	.	.
16A-\JJ)	.	.	.	.	.
8B-\L	ſo-	.	.	.	.
8BB-/J	.	.	.	.	.
4E-\	-num	.	.	.	.
4r	.	.	.	.	.
=66	=66	=66	=66	=66	=66
1r	.	1ryy	.	1ryy	.
=67	=67	=67	=67	=67	=67
1r	.	1ryy	.	1ryy	.
==68	==68	==68	==68	==68	==68
*M3/8	*	*M3/8	*	*M3/8	*
!LO:TX:t=P:problem=metrum 3/4	!	!	!	!	!
!LO:TX:a:t=Mors stu\nTacet	!	!	!	!	!
4.ryy	.	4.ryy	.	4.r	.
=69	=69	=69	=69	=69	=69
4.ryy	.	4.ryy	.	4.r	.
=70	=70	=70	=70	=70	=70
4.ryy	.	4.ryy	.	4.r	.
=71	=71	=71	=71	=71	=71
4.ryy	.	4.ryy	.	4.r	.
=72	=72	=72	=72	=72	=72
4.ryy	.	4.ryy	.	4.r	.
=73	=73	=73	=73	=73	=73
4.ryy	.	4.ryy	.	4.r	.
=74	=74	=74	=74	=74	=74
4.ryy	.	4.ryy	.	4.r	.
=75	=75	=75	=75	=75	=75
4.ryy	.	4.ryy	.	4.r	.
=76	=76	=76	=76	=76	=76
4.ryy	.	4.ryy	.	4.r	.
=77	=77	=77	=77	=77	=77
4.ryy	.	4.ryy	.	4.r	.
=78	=78	=78	=78	=78	=78
4.ryy	.	4.ryy	.	4.r	.
=79	=79	=79	=79	=79	=79
4.ryy	.	4.ryy	.	8r	.
.	.	.	.	8cc\	Mors
.	.	.	.	8g/	ſtu-
=80	=80	=80	=80	=80	=80
4.ryy	.	4.ryy	.	(8f\L	-pe-
.	.	.	.	8bn\J)	.
.	.	.	.	8dd\	-bit
=81	=81	=81	=81	=81	=81
4.ryy	.	4.ryy	.	(8ee-\L	et
.	.	.	.	8cc\J)	.
.	.	.	.	8dd\	na-
=82	=82	=82	=82	=82	=82
4.ryy	.	4.ryy	.	8bn\	-tu-
.	.	.	.	8g/	-ra
.	.	.	.	8r	.
=83	=83	=83	=83	=83	=83
4.ryy	.	4.ryy	.	4.r	.
=84	=84	=84	=84	=84	=84
4.ryy	.	4.ryy	.	4.r	.
=85	=85	=85	=85	=85	=85
4.ryy	.	4.ryy	.	8r	.
.	.	.	.	8cc\	Mors
.	.	.	.	8g/	ſtu-
=86	=86	=86	=86	=86	=86
4.ryy	.	4.ryy	.	(8f\L	-pe-
.	.	.	.	8bn\J)	.
.	.	.	.	8dd\	-bit
=87	=87	=87	=87	=87	=87
4.ryy	.	4.ryy	.	(8ee-\L	et
.	.	.	.	8cc\J)	.
.	.	.	.	8dd\	na-
!	!	!	!	!LO:LB:g=original	!
=88	=88	=88	=88	=88	=88
4.ryy	.	4.ryy	.	8bn\	-tu-
.	.	.	.	8g/	-ra
.	.	.	.	8r	.
=89	=89	=89	=89	=89	=89
4.ryy	.	4.ryy	.	8r	.
.	.	.	.	8gg\	Cum
.	.	.	.	8cc\	re-
=90	=90	=90	=90	=90	=90
4.ryy	.	4.ryy	.	(8bn\L	-ſur-
.	.	.	.	8dd\J)	.
.	.	.	.	8ee-\	-get
=91	=91	=91	=91	=91	=91
4.ryy	.	4.ryy	.	(8f\L	cre-
.	.	.	.	8bn\J)	.
.	.	.	.	8dd\	-a-
=92	=92	=92	=92	=92	=92
4.ryy	.	4.ryy	.	16ff\LL	-tu-
.	.	.	.	16dd\JJ	.
.	.	.	.	8ee-\	-ra
.	.	.	.	8r	.
=93	=93	=93	=93	=93	=93
4.ryy	.	4.ryy	.	8r	.
.	.	.	.	8bn\	Ju-
.	.	.	.	8a-X\	-di-
=94	=94	=94	=94	=94	=94
4.ryy	.	4.ryy	.	4g\	-can-
.	.	.	.	8g\	-ti
=95	=95	=95	=95	=95	=95
4.ryy	.	4.ryy	.	8r	.
.	.	.	.	8a-\	Ju-
.	.	.	.	8g/	-di-
=96	=96	=96	=96	=96	=96
4.ryy	.	4.ryy	.	4f/	-can-
.	.	.	.	8f/	-ti
=97	=97	=97	=97	=97	=97
4.ryy	.	4.ryy	.	8r	.
.	.	.	.	8b-\	Ju-
.	.	.	.	8ee-\	-di
!	!	!	!	!LO:LB:g=original	!
=98	=98	=98	=98	=98	=98
4.ryy	.	4.ryy	.	8.cc\	-can-
.	.	.	.	16b-\	-ti
.	.	.	.	8a-\	re-
=99	=99	=99	=99	=99	=99
4.ryy	.	4.ryy	.	16g/LL	-ſpon-
.	.	.	.	16f/JJ	.
.	.	.	.	8g/L	-ſu-
.	.	.	.	16f/L	.
.	.	.	.	16e-/JJ	.
=100	=100	=100	=100	=100	=100
4.ryy	.	4.ryy	.	4.e-/	-ra
=101	=101	=101	=101	=101	=101
4.ryy	.	4.ryy	.	4.r	.
=102	=102	=102	=102	=102	=102
4.ryy	.	4.ryy	.	4.r	.
=103	=103	=103	=103	=103	=103
4.ryy	.	4.ryy	.	4.r	.
=104	=104	=104	=104	=104	=104
4.ryy	.	4.ryy	.	4.r	.
=105	=105	=105	=105	=105	=105
4.ryy	.	4.ryy	.	4.r	.
=106	=106	=106	=106	=106	=106
4.ryy	.	4.ryy	.	8r	.
.	.	.	.	8b-\	Mors
.	.	.	.	8e-/	ſtu-
=107	=107	=107	=107	=107	=107
4.ryy	.	4.ryy	.	8d/	-pe-
.	.	.	.	8e-/	-bit
.	.	.	.	8r	.
=108	=108	=108	=108	=108	=108
4.ryy	.	4.ryy	.	8r	.
.	.	.	.	8b-\	Mors
.	.	.	.	8e-/	ſtu-
=109	=109	=109	=109	=109	=109
4.ryy	.	4.ryy	.	(8cc\L	-pe-
.	.	.	.	8dd\J)	.
.	.	.	.	8ee-\	-bit
=110	=110	=110	=110	=110	=110
4.ryy	.	4.ryy	.	(8cc\L	Et
.	.	.	.	8dd\J)	.
.	.	.	.	8ee-\	na-
=111	=111	=111	=111	=111	=111
4.ryy	.	4.ryy	.	8dd\	-tu-
.	.	.	.	8b-\	-ra
.	.	.	.	8r	.
=112	=112	=112	=112	=112	=112
4.ryy	.	4.ryy	.	8r	.
.	.	.	.	8b-\	Cum
.	.	.	.	8g/	re-
!	!	!	!	!LO:LB:g=original	!
=113	=113	=113	=113	=113	=113
4.ryy	.	4.ryy	.	8cc\	-ſur-
.	.	.	.	(16ee-\LL	.
.	.	.	.	16cc\JJ)	.
.	.	.	.	(16b-\LL	.
.	.	.	.	16a-\JJ)	.
=114	=114	=114	=114	=114	=114
4.ryy	.	4.ryy	.	8b-\L	.
.	.	.	.	16ee-\L	.
.	.	.	.	16b-\JJ	.
.	.	.	.	(16a-\LL	.
.	.	.	.	16g\JJ)	.
=115	=115	=115	=115	=115	=115
4.ryy	.	4.ryy	.	8a-\L	.
.	.	.	.	16ee-\L	.
.	.	.	.	16a-\JJ	.
.	.	.	.	(16g/LL	-get
.	.	.	.	16f/JJ)	.
=116	=116	=116	=116	=116	=116
4.ryy	.	4.ryy	.	(8g\	ju-
.	.	.	.	8b-\)	.
.	.	.	.	8ee-\	-di-
=117	=117	=117	=117	=117	=117
4.ryy	.	4.ryy	.	(8a-\L	-Can-
.	.	.	.	8cc\J)	.
.	.	.	.	8ee-\	-ti
=118	=118	=118	=118	=118	=118
4.ryy	.	4.ryy	.	(8bn\L	Ju-
.	.	.	.	8dd\J)	.
.	.	.	.	8ff\	-di-
=119	=119	=119	=119	=119	=119
4.ryy	.	4.ryy	.	8bn\	-Can-
.	.	.	.	8g/	-ti
.	.	.	.	8r	.
=120	=120	=120	=120	=120	=120
4.ryy	.	4.ryy	.	8r	.
.	.	.	.	8g/	Ju-
.	.	.	.	8g/	-di-
=121	=121	=121	=121	=121	=121
4.ryy	.	4.ryy	.	4.g/	-can-
=122	=122	=122	=122	=122	=122
4.ryy	.	4.ryy	.	4.g/	.
=123	=123	=123	=123	=123	=123
4.ryy	.	4.ryy	.	8g\	-ti
.	.	.	.	8dd-X\	Ju-
.	.	.	.	8cc\	-di
=124	=124	=124	=124	=124	=124
!	!	!	!	!LO:TX:t=P:problem=brak tekstu	!
4.ryy	.	4.ryy	.	8.bn\	.
.	.	.	.	16dd\	.
.	.	.	.	8ee-\	.
=125	=125	=125	=125	=125	=125
4.ryy	.	4.ryy	.	16dd\LL	.
.	.	.	.	16cc\JJ	.
.	.	.	.	4bn\	.
=126	=126	=126	=126	=126	=126
4.ryy	.	4.ryy	.	4.cc\	.
=127	=127	=127	=127	=127	=127
4.ryy	.	4.ryy	.	4.r	.
=128	=128	=128	=128	=128	=128
4.ryy	.	4.ryy	.	4.r	.
=129	=129	=129	=129	=129	=129
4.ryy	.	4.ryy	.	4.r	.
=130	=130	=130	=130	=130	=130
4.ryy	.	4.ryy	.	4.r	.
=131	=131	=131	=131	=131	=131
4.ryy	.	4.ryy	.	4.r	.
=132	=132	=132	=132	=132	=132
4.ryy	.	4.ryy	.	4.r	.
=133	=133	=133	=133	=133	=133
4.ryy	.	4.ryy	.	4.r	.
=134	=134	=134	=134	=134	=134
4.ryy	.	4.ryy	.	4.r	.
=135	=135	=135	=135	=135	=135
4.ryy	.	4.ryy	.	4.r	.
=136	=136	=136	=136	=136	=136
4.ryy	.	4.ryy	.	4.r	.
=137	=137	=137	=137	=137	=137
4.ryy	.	4.ryy	.	4.r	.
==138	==138	==138	==138	==138	==138
*M4/4	*	*M4/4	*	*M4/4	*
*met(c)	*	*met(c)	*	*met(c)	*
!	!	!LO:LB:g=original	!	!LO:TX:a:t=tutti	!
8E-\	La-	8g\	La-	8b-\	La-
8F\	-chri-	8f\	-chri-	8a-\	-cri-
8G\	-mo-	8e-\	-mo-	8g\	-mo-
8E-\	-sa	8g\	-sa	8b-\	-sa
8A-\	di-	8f\L	di-	8a-\	Di-
8F\	-es	(16e-\L	-es	(16g\LL	-es
.	.	16f\JJ)	.	16a-\JJ)	.
8A-\	il-	8d\	il-	8f/	Il-
8BB-/	-la	8d\	-la	8f/	-la
=139	=139	=139	=139	=139	=139
1r	.	1r	.	1r	.
=140	=140	=140	=140	=140	=140
8E-\	qua	8e-\	qua	8g/	qua
8D/	re-	8f\	re-	8b-\	re-
8C/	-ſur-	8e-\	-ſur-	8an\	-ſur-
8BB-/	-get	8f\	-get	(16b-\LL	-get
!LO:LB:g=original	!	!	!	!	!
.	.	.	.	16cc\JJ)	.
8F\	ex	8.f\	ex	8dd\	ex
8FF/	fa-	.	.	(16cc\LL	fa-
.	.	16f\	fa-	16b-\JJ)	.
!	!	!	!	!LO:LB:g=original	!
8BB-/	-vil-	8f\	-vil-	8b-\	-vil-
8BB-/	-la	8f\	-la	8b-\	-la
=141	=141	=141	=141	=141	=141
1r	.	1r	.	1r	.
=142	=142	=142	=142	=142	=142
8D/	ex	8f\	ex	8b-\	ex
8BB-/	fa-	8f\	fa-	8dd\	fa-
8E-\	-vil-	8g\	-vil-	8ee-\	-vil-
8BB-/	-la	8f\	-la	8dd\	-la
2r	.	2r	.	2r	.
=143	=143	=143	=143	=143	=143
8E-\	qua	8g\	qua	8ee-\	qua
8D/	re-	8f\	re-	8b-\	re-
8C/	-sur-	8g\	-ſur-	8cc\	-ſur-
8F\	-get	8a-\	-get	8dd\	-get
8G\	ex	8.g\	ex	8ee-\	ex
8GG/	fa-	.	.	(16dd\LL	fa-
.	.	16g\	fa-	16cc\JJ)	.
8C/	-vil-	8g\	-vil-	8cc\	-vil-
8C/	-la	8g\	-la	8cc\	-la
!	!	!LO:LB:g=original	!	!	!
=144	=144	=144	=144	=144	=144
8B-\	ex	8f\	ex	8dd\	ex
8B-\	fa-	8f\	fa-	8cc\	fa-
8E-\	-vil-	8g\	-vil-	8ee-\	-vil-
8B-\	-la	8f\	-la	8dd\	-la
2r	.	2r	.	2r	.
=145	=145	=145	=145	=145	=145
8E-\	qua	8g\	qua	8ee-\	qua
8F\	re-	8f\	re-	8dd\	re-
8G\	-sur-	8e-\	-sur-	8ee-\	-sur-
8A-\	-get	16a-\LL	-get	16ff\LL	-get
!LO:LB:g=original	!	!	!	!	!
.	.	16g\JJ	.	16ee-\JJ	.
8B-\	ex	8.f\	ex	8.dd\	ex
8BB-/	fa-	.	.	.	.
.	.	16f\	fa-	16dd\	fa-
!	!	!	!	!LO:LB:g=original	!
8E-\	-vil-	8g\	-vil-	8ee-\	-vil-
8G\	-la	8g\	-la	8ee-\	-la
=146	=146	=146	=146	=146	=146
8B-\	ex	8f\	ex	8dd\	ex
8BB-/	fa-	8f\	fa-	8dd\	fa-
8E-\	-vil-	8g\	-vil-	8ee-\	-vil-
8E-\	-la	8g\	-la	8ee-\	-la
2r	.	2r	.	2r	.
=147||	=147||	=147||	=147||	=147||	=147||
*M3/2	*	*M3/2	*	*M3/2	*
2r	.	2r	.	2r	.
!	!	!LO:TX:t=P:problem=metrum 3/4	!	!	!
2E-\	Ju-	2g\	Ju-	2ee-\	Ju-
2BB-/	-di	2f\	-di-	2dd\	-di-
=148	=148	=148	=148	=148	=148
2E-\	Can-	2g\	-Can-	(2ee-\	-Can-
(2F\	-dus	(2f\	.	2dd\)	.
2G\)	.	2e-\)	-d(us)	2ee-\	-d(us)
=149	=149	=149	=149	=149	=149
2A-\	ho-	1a-	ho-	(2cc\	ho-
(2F\	-mo	.	.	2dd\)	.
2E-\)	.	2g\	-mo	2ee-\	-mo
=150	=150	=150	=150	=150	=150
1B-	re-	1f	re-	1dd	re-
2BB-/	-us	2f\	-us	2dd\	-us
!	!	!LO:LB:g=original	!	!	!
=151	=151	=151	=151	=151	=151
2r	.	2r	.	2r	.
2E-\	hu-	2g\	hu-	2b-\	hu-
2D\	-ic	2f\	-ic	2b-\	-ic
=152	=152	=152	=152	=152	=152
1C	er-	2e-\	er-	(2b-\	er-
.	.	1f	-go	2cc\)	.
2BB-/	-go	.	.	2dd\	-go
!LO:LB:g=original	!	!	!	!	!
=153	=153	=153	=153	=153	=153
(2E-\	par-	1g	par-	1cc	par-
2C/)	.	.	.	.	.
2F\	-ce	2f\	-ce	2cc\	-ce
=154	=154	=154	=154	=154	=154
1BB-	De-	1f	De-	1dd	De-
2BB-/	-us	2f\	-us	2dd\	-us
!	!	!	!	!LO:PB:g=original	!
=155	=155	=155	=155	=155	=155
2r	.	2r	.	2r	.
2BB-/	Pi-	2f\	Pi-	2dd\	Pi-
2BB-/	-e	2f\	-e	2dd\	-e
=156	=156	=156	=156	=156	=156
2E-\	Je-	2g\	Je-	2b-\	Je-
2BB-/	-su	2f\	-su	2dd\	-su
2r	.	2r	.	2r	.
=157	=157	=157	=157	=157	=157
2r	.	2r	.	2r	.
2B-\	Pi-	2f\	pi-	2dd\	pi-
2A-\	-e	2f\	-e	2dd\	-e
=158	=158	=158	=158	=158	=158
2G\	Je-	(2g\	Je-	(2ee-\	Je-
(2F\	-su	2a-\)	.	2dd\)	.
2E-\)	.	2g\	-su	2ee-\	-su
=159	=159	=159	=159	=159	=159
(2A-\	Do-	2f\	Do-	2ee-\	Do-
2F\)	.	2.f\	-mi-	(2.ee-\	-mi-
2B-\	-mi-	.	.	.	.
.	.	4f\	-ne	4dd\)	.
=160	=160	=160	=160	=160	=160
2E-\	-ne	2g\	Do-	2ee-\	-ne
2E-\	do-	2e-\	.	2b-\	do-
2D\	-na	2f\	-na	2b-\	-na
=161	=161	=161	=161	=161	=161
(2C/	e-	(2e-\	e-	(1a-	e-
2D/)	.	2f\)	.	.	.
2D/	-is	2f\	-is	2g/)	.
!LO:LB:g=original	!	!LO:LB:g=original	!	!	!
=162	=162	=162	=162	=162	=162
2AAn/	re-	2e-\	Re-	2f/	-is
2.BB-/	-qui-	(2.e-\	-qui-	2g/	Re-
.	.	.	.	4.f/	-qui-
4BB-/	-em	4d\)	.	.	.
.	.	.	.	8e-/	.
=163	=163	=163	=163	=163	=163
2E-\	A-	2e-\	-em	2e-/	-em
2A-\	-men	2e-\	A-	2cc\	a-
2G\	a-	2g\	-men	2ee-\	-men,
=164	=164	=164	=164	=164	=164
1.A-	.	(1e-	a-	(1cc	a-
.	.	2f\)	.	2dd\)	.
=165	=165	=165	=165	=165	=165
1.E-	-men	1.g	-men	1.ee-	-men.
=:|!	=:|!	=:|!	=:|!	=:|!	=:|!
*-	*-	*-	*-	*-	*-
!!!system-decoration: [(s1,s2,s3)]
!!!ENC: Tomasz Grochalski
!!!END: 2020-12-28
!!!ENC: Julita Ruszuk
!!!END: 2022-03-29
!!!YEC: Copyright 2022 Narodowy Instytut Fryderyka Chopina (https://polishscores.org)
!!!YEM: License CC-BY-4.0 (https://creativecommons.org/licenses/by/4.0)
